Breeze Chameleon Amethyst Dark Icons/places/32/folder-unlocked.svg

<?xml version="1.0" encoding="UTF-8" standalone="no"?>
<svg
   xmlns:dc="http://purl.org/dc/elements/1.1/"
   xmlns:cc="http://creativecommons.org/ns#"
   xmlns:rdf="http://www.w3.org/1999/02/22-rdf-syntax-ns#"
   xmlns:svg="http://www.w3.org/2000/svg"
   xmlns="http://www.w3.org/2000/svg"
   xmlns:xlink="http://www.w3.org/1999/xlink"
   xmlns:sodipodi="http://sodipodi.sourceforge.net/DTD/sodipodi-0.dtd"
   xmlns:inkscape="http://www.inkscape.org/namespaces/inkscape"
   id="svg2"
   viewBox="0 0 32 32"
   height="32"
   version="1.1"
   width="32"
   sodipodi:docname="folder-unlocked.svg"
   inkscape:version="1.0.2 (e86c870879, 2021-01-15)">
  <sodipodi:namedview
     pagecolor="#ffffff"
     bordercolor="#666666"
     borderopacity="1"
     objecttolerance="10"
     gridtolerance="10"
     guidetolerance="10"
     inkscape:pageopacity="0"
     inkscape:pageshadow="2"
     inkscape:window-width="1920"
     inkscape:window-height="1007"
     id="namedview18"
     showgrid="false"
     inkscape:zoom="7.375"
     inkscape:cx="-8.3389831"
     inkscape:cy="16"
     inkscape:window-x="0"
     inkscape:window-y="0"
     inkscape:window-maximized="1"
     inkscape:current-layer="svg2"
     inkscape:document-rotation="0" />
  <defs
     id="defs5455">
    <linearGradient
       inkscape:collect="always"
       id="linearGradient832">
      <stop
         style="stop-color:#9966cc;stop-opacity:1"
         offset="0"
         id="stop828" />
      <stop
         style="stop-color:#9966cc;stop-opacity:1"
         offset="1"
         id="stop830" />
    </linearGradient>
    <linearGradient
       id="linearGradient4172-5">
      <stop
         id="stop4174-6"
         style="stop-color:#9966cc;stop-opacity:1" />
      <stop
         id="stop4176-6"
         style="stop-color:#2f2043;stop-opacity:1"
         offset="1" />
    </linearGradient>
    <linearGradient
       x2="30.915255"
       gradientUnits="userSpaceOnUse"
       y2="17.762712"
       y1="17.61017"
       xlink:href="#linearGradient4172-5"
       id="linearGradient4342"
       x1="1.0847458" />
    <linearGradient
       inkscape:collect="always"
       xlink:href="#linearGradient832"
       id="linearGradient834"
       x1="386.57144"
       y1="522.798"
       x2="414.57144"
       y2="522.798"
       gradientUnits="userSpaceOnUse" />
  </defs>
  <metadata
     id="metadata5458">
    <rdf:RDF>
      <cc:Work
         rdf:about="">
        <dc:format>image/svg+xml</dc:format>
        <dc:type
           rdf:resource="http://purl.org/dc/dcmitype/StillImage" />
        <dc:title />
      </cc:Work>
    </rdf:RDF>
  </metadata>
  <g
     transform="translate(-384.57143,-515.798)"
     id="layer1">
    <g
       transform="translate(-6e-6)"
       id="layer1-1">
      <path
         d="m 386.57144,518.798 v 7 1 h 28 v -6 h -14.00001 l -2,-2 z"
         id="path4308"
         style="fill:url(#linearGradient834);fill-opacity:1;fill-rule:evenodd" />
      <path
         d="m 397.57143,523.798 -1.99999,1 h -9 v 1 h 6.99999 3 z"
         id="path4306"
         style="fill-opacity:0.235294;fill-rule:evenodd" />
      <path
         transform="translate(384.57143,515.798)"
         d="m 13,8 -2,2 H 2 1 v 19 h 11 1 18 V 8 Z"
         id="rect4294"
         style="fill:url(#linearGradient4342)" />
      <path
         d="m 397.57143,523.798 -2,2 h -10 v 1 h 11 z"
         id="path4304"
         style="fill:#ffffff;fill-opacity:0.235294;fill-rule:evenodd" />
      <path
         d="m 398.57143,518.798 1,3 h 15.00001 v -1 h -14.00001 z"
         id="path4310"
         style="fill:#ffffff;fill-opacity:0.235294;fill-rule:evenodd" />
      <rect
         id="rect4292"
         style="fill-opacity:0.235294"
         height="1"
         y="543.79797"
         x="385.57144"
         width="30" />
    </g>
    <path
       id="rect4184"
       transform="translate(384.57143,515.798)"
       d="m 16,13 c -1.662003,0 -3,1.337997 -3,3 h 1 c 0,-1.108 0.892,-2 2,-2 1.108,0 2,0.892 2,2 v 2 h -4 -1 -1 v 5 h 8 v -5 h -1 v -2 c 0,-1.662003 -1.337997,-3 -3,-3 z m -3,6 h 1 4 1 v 3 h -6 z"
       style="fill:#ffffff;fill-opacity:1" />
  </g>
</svg>

<?xml version="1.0" encoding="UTF-8" standalone="no"?>
<svg
   xmlns:dc="http://purl.org/dc/elements/1.1/"
   xmlns:cc="http://creativecommons.org/ns#"
   xmlns:rdf="http://www.w3.org/1999/02/22-rdf-syntax-ns#"
   xmlns:svg="http://www.w3.org/2000/svg"
   xmlns="http://www.w3.org/2000/svg"
   xmlns:xlink="http://www.w3.org/1999/xlink"
   xmlns:sodipodi="http://sodipodi.sourceforge.net/DTD/sodipodi-0.dtd"
   xmlns:inkscape="http://www.inkscape.org/namespaces/inkscape"
   id="svg2"
   viewBox="0 0 32 32"
   height="32"
   version="1.1"
   width="32"
   sodipodi:docname="folder-unlocked.svg"
   inkscape:version="0.92.4 (5da689c313, 2019-01-14)">
  <sodipodi:namedview
     pagecolor="#ffffff"
     bordercolor="#666666"
     borderopacity="1"
     objecttolerance="10"
     gridtolerance="10"
     guidetolerance="10"
     inkscape:pageopacity="0"
     inkscape:pageshadow="2"
     inkscape:window-width="1920"
     inkscape:window-height="1033"
     id="namedview18"
     showgrid="false"
     inkscape:zoom="7.375"
     inkscape:cx="-8.3389831"
     inkscape:cy="16"
     inkscape:window-x="0"
     inkscape:window-y="0"
     inkscape:window-maximized="1"
     inkscape:current-layer="svg2" />
  <defs
     id="defs5455">
    <linearGradient
       inkscape:collect="always"
       id="linearGradient832">
      <stop
         style="stop-color:#9966cc;stop-opacity:1"
         offset="0"
         id="stop828" />
      <stop
         style="stop-color:#9966cc;stop-opacity:1"
         offset="1"
         id="stop830" />
    </linearGradient>
    <linearGradient
       id="linearGradient4172-5">
      <stop
         id="stop4174-6"
         style="stop-color:#9966cc;stop-opacity:1" />
      <stop
         id="stop4176-6"
         style="stop-color:#2f2043;stop-opacity:1"
         offset="1" />
    </linearGradient>
    <linearGradient
       x2="30.915255"
       gradientUnits="userSpaceOnUse"
       y2="17.762712"
       y1="17.61017"
       xlink:href="#linearGradient4172-5"
       id="linearGradient4342"
       x1="1.0847458" />
    <linearGradient
       inkscape:collect="always"
       xlink:href="#linearGradient832"
       id="linearGradient834"
       x1="386.57144"
       y1="522.798"
       x2="414.57144"
       y2="522.798"
       gradientUnits="userSpaceOnUse" />
  </defs>
  <metadata
     id="metadata5458">
    <rdf:RDF>
      <cc:Work
         rdf:about="">
        <dc:format>image/svg+xml</dc:format>
        <dc:type
           rdf:resource="http://purl.org/dc/dcmitype/StillImage" />
        <dc:title />
      </cc:Work>
    </rdf:RDF>
  </metadata>
  <g
     transform="matrix(1 0 0 1 -384.57143 -515.798)"
     id="layer1">
    <g
       transform="matrix(1 0 0 1 -0.000006 0)"
       id="layer1-1">
      <path
         d="m 386.57144,518.798 0,7 0,1 28,0 0,-6 -14.00001,0 -2,-2 z"
         id="path4308"
         style="fill:url(#linearGradient834);fill-rule:evenodd;fill-opacity:1" />
      <path
         d="m 397.57143,523.798 -1.99999,1 -9,0 0,1 6.99999,0 3,0 z"
         id="path4306"
         style="fill-opacity:0.235294;fill-rule:evenodd" />
      <path
         transform="matrix(1 0 0 1 384.57143 515.798)"
         d="m 13,8 -2,2 -9,0 -1,0 0,19 11,0 1,0 18,0 0,-21 -18,0 z"
         id="rect4294"
         style="fill:url(#linearGradient4342)" />
      <path
         d="m 397.57143,523.798 -2,2 -10,0 0,1 11,0 z"
         id="path4304"
         style="fill:#ffffff;fill-opacity:0.235294;fill-rule:evenodd" />
      <path
         d="m 398.57143,518.798 1,3 15.00001,0 0,-1 -14.00001,0 z"
         id="path4310"
         style="fill:#ffffff;fill-opacity:0.235294;fill-rule:evenodd" />
      <rect
         id="rect4292"
         style="fill-opacity:0.235294"
         height="1"
         y="543.79797"
         x="385.57144"
         width="30" />
    </g>
    <path
       id="rect4184"
       transform="translate(384.57143,515.798)"
       d="M 16 13 C 14.337997 13 13 14.337997 13 16 L 14 16 C 14 14.892 14.892 14 16 14 C 17.108 14 18 14.892 18 16 L 18 18 L 14 18 L 13 18 L 12 18 L 12 23 L 20 23 L 20 18 L 19 18 L 19 16 C 19 14.337997 17.662003 13 16 13 z M 13 19 L 14 19 L 18 19 L 19 19 L 19 22 L 13 22 L 13 19 z "
       style="fill:#2f2043;fill-opacity:1" />
  </g>
</svg>
